vendor/shopware/storefront/Resources/app/storefront/dist/assets/icon/default/briefcase.svg

<svg xmlns="http://www.w3.org/2000/svg" width="24" height="24" viewBox="0 0 24 24">
  <path fill="#758CA3" fill-rule="evenodd" d="M20,8 L20,9 C20,9.55228475 19.5522847,10 19,10 C18.4477153,10 18,9.55228475 18,9 L18,8 L6,8 L6,9 C6,9.55228475 5.55228475,10 5,10 C4.44771525,10 4,9.55228475 4,9 L4,8 L3,8 C2.44771525,8 2,8.44771525 2,9 L2,19 C2,19.5522847 2.44771525,20 3,20 L21,20 C21.5522847,20 22,19.5522847 22,19 L22,9 C22,8.44771525 21.5522847,8 21,8 L20,8 Z M7,6 L7,4 C7,2.8954305 7.8954305,2 9,2 L15,2 C16.1045695,2 17,2.8954305 17,4 L17,6 L21,6 C22.6568542,6 24,7.34314575 24,9 L24,19 C24,20.6568542 22.6568542,22 21,22 L3,22 C1.34314575,22 2.02906125e-16,20.6568542 0,19 L0,9 C-2.02906125e-16,7.34314575 1.34314575,6 3,6 L7,6 Z M9,6 L15,6 L15,4 L9,4 L9,6 Z"/>
</svg>

<svg xmlns="http://www.w3.org/2000/svg" width="24" height="24" viewBox="0 0 24 24"><path fill="#758CA3" fill-rule="evenodd" d="M20 8v1c0 .5523-.4477 1-1 1s-1-.4477-1-1V8H6v1c0 .5523-.4477 1-1 1s-1-.4477-1-1V8H3c-.5523 0-1 .4477-1 1v10c0 .5523.4477 1 1 1h18c.5523 0 1-.4477 1-1V9c0-.5523-.4477-1-1-1h-1zM7 6V4c0-1.1046.8954-2 2-2h6c1.1046 0 2 .8954 2 2v2h4c1.6569 0 3 1.3431 3 3v10c0 1.6569-1.3431 3-3 3H3c-1.6569 0-3-1.3431-3-3V9c0-1.6569 1.3431-3 3-3h4zm2 0h6V4H9v2z"/></svg>
